makai/public/logo.svg

<svg width="70" height="40" viewBox="0 0 70 40" fill="none" xmlns="http://www.w3.org/2000/svg">
<path d="M37.2551 1.61586C38.1803 0.653384 39.4368 0.112671 40.7452 0.112671C46.6318 0.112671 52.1793 0.112674 57.6424 0.112685C68.6302 0.112708 74.1324 13.9329 66.3629 22.0156L49.4389 39.6217C48.662 40.43 47.3335 39.8575 47.3335 38.7144V23.2076L49.2893 21.1729C50.8432 19.5564 49.7427 16.7923 47.5451 16.7923H22.6667L37.2551 1.61586Z" fill="#ffffff"></path>
<path d="M32.7449 38.3842C31.8198 39.3467 30.5633 39.8874 29.2549 39.8874C23.3683 39.8874 17.8208 39.8874 12.3577 39.8874C1.36983 39.8873 -4.13236 26.0672 3.63721 17.9844L20.5612 0.378369C21.3381 -0.429908 22.6666 0.142547 22.6666 1.28562L22.6667 16.7923L20.7108 18.8271C19.1569 20.4437 20.2574 23.2077 22.455 23.2077L47.3335 23.2076L32.7449 38.3842Z" fill="#ffffff"></path>
<defs>
<linearGradient id="paint0_linear_5464_1221" x1="59" y1="2" x2="16" y2="40" gradientUnits="userSpaceOnUse">
<stop stop-color="#59FFB1"></stop>
<stop offset="0.510529" stop-color="#009CCC"></stop>
<stop offset="1" stop-color="#3A04FF"></stop>
</linearGradient>
<linearGradient id="paint1_linear_5464_1221" x1="59" y1="2" x2="16" y2="40" gradientUnits="userSpaceOnUse">
<stop stop-color="#59FFB1"></stop>
<stop offset="0.510529" stop-color="#009CCC"></stop>
<stop offset="1" stop-color="#3A04FF"></stop>
</linearGradient>
</defs>
</svg>

<svg xmlns="http://www.w3.org/2000/svg" width="70" height="40" fill="none" viewBox="0 0 70 40"><path fill="#fff" d="M37.255 1.616a4.84 4.84 0 0 1 3.49-1.503h16.897c10.988 0 16.49 13.82 8.72 21.903L49.44 39.622c-.777.808-2.105.236-2.105-.908V23.208l1.955-2.035c1.554-1.617.454-4.38-1.744-4.38H22.667z"/><path fill="#fff" d="M32.745 38.384a4.84 4.84 0 0 1-3.49 1.503H12.358c-10.988 0-16.49-13.82-8.72-21.903L20.56.378c.777-.808 2.106-.235 2.106.908v15.506l-1.956 2.035c-1.554 1.617-.454 4.38 1.744 4.38h24.879z"/></svg>
